svg/icon-housing.svg

<svg viewBox="0 0 20 21" xmlns="http://www.w3.org/2000/svg" fill-rule="evenodd" clip-rule="evenodd" stroke-linejoin="round" stroke-miterlimit="1.414"><path fill="#118df0" d="M10.7.2H20v20h-9.3z"/><path fill="#fff" d="M14.3 15.3h2v2h-2zM14.3 11.4h2v2h-2zM14.3 7.4h2v2h-2zM14.3 3.4h2v2h-2z"/><path d="M12.4 20.3H.1v-7.4l6.1-5.5 6.2 5.4v7.5z" fill="#118df0" fill-rule="nonzero"/><path fill="#fff" d="M5.2 15.3h2v2h-2zM5.2 11.4h2v2h-2z"/></svg>

<svg viewBox="0 0 20 21" xmlns="http://www.w3.org/2000/svg" fill-rule="evenodd" clip-rule="evenodd" stroke-linejoin="round" stroke-miterlimit="1.414"><path fill="#118df0" d="M10.7 0.2H20V20.2H10.7z"/><path fill="#fff" d="M14.3 15.3H16.3V17.3H14.3zM14.3 11.4H16.3V13.4H14.3zM14.3 7.4H16.3V9.4H14.3zM14.3 3.4H16.3V5.4H14.3z"/><path d="M12.4,20.3l-12.3,0l0,-7.4l6.1,-5.5l6.2,5.4l0,7.5Z" fill="#118df0" fill-rule="nonzero"/><path fill="#fff" d="M5.2 15.3H7.2V17.3H5.2zM5.2 11.4H7.2V13.4H5.2z"/></svg>
